svg/set/8ED/WM.svg

<?xml version="1.0" encoding="UTF-8" standalone="no"?>
<svg
   version="1.1"
   width="600"
   height="503.19629"
   id="svg1"
   xmlns="http://www.w3.org/2000/svg"
   xmlns:svg="http://www.w3.org/2000/svg">
  <defs
     id="defs1" />
  <path
     d="m 171.37649,0 c 0,0 -31.64648,3.34133 -31.64648,36.15625 L 22.140165,68.986328 c 0,0 -29.4439147,11.276701 -20.4218747,49.744142 L 99.007352,481.74414 c 0,0 20.367608,27.17506 44.105468,20.35352 l 156.9375,-43.14258 156.86719,43.14258 c 23.73786,6.82154 44.10742,-20.35352 44.10742,-20.35352 L 598.25931,118.73047 C 607.33636,80.263029 577.95852,68.986328 577.95852,68.986328 L 460.35696,36.15625 C 460.35696,3.34133 428.65579,0 428.65579,0 Z m 1.01758,13.546875 h 255.24414 c 1.44408,0.26131 6.00974,1.27811 10.31445,4.125 5.95511,4.02966 8.80274,9.888675 8.80274,18.484375 v 10.316406 c 0,0 124.80951,34.807625 126.63867,35.302735 3.27324,1.49909 13.05078,7.413579 13.05078,23.037109 0,3.17696 -0.42565,6.72458 -1.34765,10.69922 -0.16504,0.70141 -94.86965,354.1441 -96.4375,359.83789 -4.12593,4.73107 -16.43373,16.9705 -27.98633,13.69727 l -160.62305,-44.2168 -160.63672,44.2168 c -11.55261,3.27323 -23.90328,-8.9662 -28.04297,-13.69727 -1.56785,-5.69379 -96.215826,-359.13703 -96.380856,-359.83789 -0.96272,-3.97464 -1.402343,-7.52226 -1.402343,-10.69922 0,-15.62353 9.832473,-21.538019 13.064453,-23.037109 1.81541,-0.49511 126.624996,-35.302735 126.624996,-35.302735 V 36.15625 c 0,-8.5957 2.84732,-14.454715 8.85743,-18.484375 4.30472,-2.84689 8.81568,-3.86424 10.25976,-4.125 z m 1.56836,16.970703 c 0,0 -5.32227,2.256558 -5.32227,6.767578 V 412.75781 c 0,0 -1.8e-4,7.57813 5.32227,7.57813 h 252.54688 c 0,0 6.0664,-1.55427 6.0664,-7.57813 V 37.285156 c 0,0 -0.79896,-6.767578 -6.0664,-6.767578 z M 449.5054,64.419922 V 413.51562 c 0,10e-6 -3.01224,22.60938 -21.11133,22.60938 h -98.04492 l 131.18945,36.21094 c 0,0 7.57776,3.75585 11.27735,-4.50977 L 569.36282,109.6543 c 0,0 3.75446,-11.279089 -5.26758,-14.291019 z M 150.58157,65.175781 35.935087,96.121094 c -9.02204,2.99818 -5.212891,14.289066 -5.212891,14.289066 L 127.1597,468.58203 c 3.82336,8.26562 11.33203,4.51172 11.33203,4.51172 l 131.20508,-36.1582 H 171.6929 c -18.1541,0 -21.11133,-22.67774 -21.11133,-22.67774 z M 327.8179,82.849609 c 20.73968,0 37.71133,5.583047 50.87305,16.654297 13.10671,11.167524 19.7207,25.195984 19.7207,42.277344 0,13.64308 -4.73131,25.56635 -14.17969,35.82617 -9.46214,10.25982 -26.91369,21.22051 -52.43945,32.82813 28.799,29.28036 43.19922,53.82956 43.19922,73.75781 0,19.66695 -7.85434,37.17481 -23.58789,52.55078 -15.6923,15.30721 -37.28383,22.99609 -64.625,22.99609 -26.81856,0 -47.76497,-7.20596 -62.75586,-21.60546 -14.99089,-14.3995 -22.51367,-29.817 -22.51367,-46.25196 0,-16.06363 7.46875,-31.05427 22.34961,-45.01367 14.89462,-13.91814 35.52258,-25.41741 61.79101,-34.43945 -24.45302,-23.97167 -36.69336,-45.50843 -36.69336,-64.58399 0,-17.98907 7.83927,-33.35121 23.47656,-45.97656 15.67854,-12.680357 34.10871,-19.019531 55.38477,-19.019531 z m -2.79297,14.88086 c -12.8454,0 -23.58658,4.084641 -32.07227,12.240231 -8.59568,8.16935 -12.78906,17.35606 -12.78906,27.50586 0,7.04159 1.99378,13.80727 6.02344,20.3125 4.08468,6.4502 13.69735,18.00221 28.89453,34.49219 l 4.36133,4.77344 c 33.25501,-16.97134 49.9082,-36.30793 49.9082,-57.91407 0,-12.07523 -4.3047,-22.01871 -12.90039,-29.76171 -8.59569,-7.78426 -19.07549,-11.648441 -31.42578,-11.648441 z M 298.16556,226.07422 c -22.29379,9.72345 -39.00264,20.29822 -50.12891,31.64453 -11.16752,11.38757 -16.75195,23.79369 -16.75195,37.23047 0,14.39951 5.58443,26.26809 16.75195,35.77148 11.18128,9.40713 24.65895,14.13865 40.40625,14.13868 15.47225,-10e-6 28.35932,-4.67719 38.61914,-14.0293 10.25982,-9.35211 15.41602,-20.40915 15.41602,-33.14453 0,-18.5942 -14.77083,-42.496 -44.3125,-71.61133 z"
     id="path1" />
</svg>

<?xml version="1.0" encoding="UTF-8" standalone="no"?>
<svg xmlns="http://www.w3.org/2000/svg" version="1.1" width="600" height="503.19702">
  <path d="M 171.37695 0 C 171.37695 0 139.73047 3.34133 139.73047 36.15625 L 22.140625 68.986328 C 22.140625 68.986328 -7.30329 80.263029 1.71875 118.73047 L 99.007812 481.74414 C 99.007812 481.74414 119.37542 508.9192 143.11328 502.09766 L 300.05078 458.95508 L 456.91797 502.09766 C 480.65583 508.9192 501.02539 481.74414 501.02539 481.74414 L 598.25977 118.73047 C 607.33682 80.263029 577.95898 68.986328 577.95898 68.986328 L 460.35742 36.15625 C 460.35742 3.34133 428.65625 0 428.65625 0 L 171.37695 0 z M 172.39453 13.546875 L 427.63867 13.546875 C 429.08275 13.808185 433.64841 14.824985 437.95312 17.671875 C 443.90823 21.701535 446.75586 27.56055 446.75586 36.15625 L 446.75586 46.472656 C 446.75586 46.472656 571.56537 81.280281 573.39453 81.775391 C 576.66777 83.274481 586.44531 89.18897 586.44531 104.8125 C 586.44531 107.98946 586.01966 111.53708 585.09766 115.51172 C 584.93262 116.21313 490.22801 469.65582 488.66016 475.34961 C 484.53423 480.08068 472.22643 492.32011 460.67383 489.04688 L 300.05078 444.83008 L 139.41406 489.04688 C 127.86145 492.32011 115.51078 480.08068 111.37109 475.34961 C 109.80324 469.65582 15.155264 116.21258 14.990234 115.51172 C 14.027514 111.53708 13.587891 107.98946 13.587891 104.8125 C 13.587891 89.18897 23.420364 83.274481 26.652344 81.775391 C 28.467754 81.280281 153.27734 46.472656 153.27734 46.472656 L 153.27734 36.15625 C 153.27734 27.56055 156.12466 21.701535 162.13477 17.671875 C 166.43949 14.824985 170.95045 13.807635 172.39453 13.546875 z M 173.96289 30.517578 C 173.96289 30.517578 168.64062 32.774136 168.64062 37.285156 L 168.64062 412.75781 C 168.64062 412.75781 168.64044 420.33594 173.96289 420.33594 L 426.50977 420.33594 C 426.50977 420.33594 432.57617 418.78167 432.57617 412.75781 L 432.57617 37.285156 C 432.57617 37.285156 431.77721 30.517578 426.50977 30.517578 L 173.96289 30.517578 z M 449.50586 64.419922 L 449.50586 413.51562 C 449.50586 413.51563 446.49362 436.125 428.39453 436.125 L 330.34961 436.125 L 461.53906 472.33594 C 461.53906 472.33594 469.11682 476.09179 472.81641 467.82617 L 569.36328 109.6543 C 569.36328 109.6543 573.11774 98.375211 564.0957 95.363281 L 449.50586 64.419922 z M 150.58203 65.175781 L 35.935547 96.121094 C 26.913507 99.119274 30.722656 110.41016 30.722656 110.41016 L 127.16016 468.58203 C 130.98352 476.84765 138.49219 473.09375 138.49219 473.09375 L 269.69727 436.93555 L 171.69336 436.93555 C 153.53926 436.93555 150.58203 414.25781 150.58203 414.25781 L 150.58203 65.175781 z M 327.81836 82.849609 C 348.55804 82.849609 365.52969 88.432656 378.69141 99.503906 C 391.79812 110.67143 398.41211 124.69989 398.41211 141.78125 C 398.41211 155.42433 393.6808 167.3476 384.23242 177.60742 C 374.77028 187.86724 357.31873 198.82793 331.79297 210.43555 C 360.59197 239.71591 374.99219 264.26511 374.99219 284.19336 C 374.99219 303.86031 367.13785 321.36817 351.4043 336.74414 C 335.712 352.05135 314.12047 359.74023 286.7793 359.74023 C 259.96074 359.74023 239.01433 352.53427 224.02344 338.13477 C 209.03255 323.73527 201.50977 308.31777 201.50977 291.88281 C 201.50977 275.81918 208.97852 260.82854 223.85938 246.86914 C 238.754 232.951 259.38196 221.45173 285.65039 212.42969 C 261.19737 188.45802 248.95703 166.92126 248.95703 147.8457 C 248.95703 129.85663 256.7963 114.49449 272.43359 101.86914 C 288.11213 89.188783 306.5423 82.849609 327.81836 82.849609 z M 325.02539 97.730469 C 312.17999 97.730469 301.43881 101.81511 292.95312 109.9707 C 284.35744 118.14005 280.16406 127.32676 280.16406 137.47656 C 280.16406 144.51815 282.15784 151.28383 286.1875 157.78906 C 290.27218 164.23926 299.88485 175.79127 315.08203 192.28125 L 319.44336 197.05469 C 352.69837 180.08335 369.35156 160.74676 369.35156 139.14062 C 369.35156 127.06539 365.04686 117.12191 356.45117 109.37891 C 347.85548 101.59465 337.37568 97.730469 325.02539 97.730469 z M 298.16602 226.07422 C 275.87223 235.79767 259.16338 246.37244 248.03711 257.71875 C 236.86959 269.10632 231.28516 281.51244 231.28516 294.94922 C 231.28516 309.34873 236.86959 321.21731 248.03711 330.7207 C 259.21839 340.12783 272.69606 344.85935 288.44336 344.85938 C 303.91561 344.85937 316.80268 340.18219 327.0625 330.83008 C 337.32232 321.47797 342.47852 310.42093 342.47852 297.68555 C 342.47852 279.09135 327.70769 255.18955 298.16602 226.07422 z "/>
</svg>
